X:180
T:Y Cambro Brython - The Welsh Briton
M:2/4
L:1/8
Q:180
C:Trad.
R:Processional
N:Also known as Dic y Cymro
K:D
F>E DF | GB AF | Gd AF | GE E2 | F>E DF | GB AF | Gd
AF | ED D2 :|| Bd cd | Ad cd | GB AF | GE E2 | Bd cd
| Ad cd | GB AF | ED D2 | Bd cd | Ad cd | GB AF | GE
E2 | F>E DF | GB AF | Gd AF | ED D2 ||
